icons/wheelchair_fill.svg

<svg width="48" height="48" viewBox="0 0 48 48" fill="none" xmlns="http://www.w3.org/2000/svg">
<path d="M30.5 9.5C30.5 11.433 28.933 13 27 13C25.067 13 23.5 11.433 23.5 9.5C23.5 7.567 25.067 6 27 6C28.933 6 30.5 7.567 30.5 9.5Z" fill="black"/>
<path d="M24.6295 32.3726L25.9938 32.2748C25.9979 32.1837 26 32.0921 26 32C26 28.6863 23.3137 26 20 26C19.1147 26 18.2743 26.1917 17.5178 26.5359C17.5607 27.6864 17.6798 28.6119 17.8577 29.1063C19.2218 32.8971 24.6295 32.3726 24.6295 32.3726Z" fill="black"/>
<path fill-rule="evenodd" clip-rule="evenodd" d="M38.3387 37.4031C39.2385 39.4773 36.1367 41.027 34.9055 39.1674C33.6743 37.3077 30.6199 31.9434 30.6199 31.9434L30 31.9878L30 32C30 37.5228 25.5228 42 20 42C14.4772 42 10 37.5228 10 32C10 27.7085 12.7033 24.0483 16.5 22.6296V16.75L13.9 14.8L15.1 13.2L18.5 15.75V17.9478C18.7523 17.1634 19.0573 16.4825 19.4204 15.9697C21.4804 13.0611 21.8829 12.8465 24.1559 13.0611C26.429 13.2757 30.2647 20.8572 30.2647 20.8572C30.2647 20.8572 35.0949 22.0016 36.9418 22.6453C38.7886 23.289 37.6284 25.8162 36.4445 25.7685C35.2607 25.7208 28.773 25.0771 27.897 24.5765C27.0209 24.0758 25.5529 21.6678 25.5529 21.6678L25.4086 23.5875C26.531 24.3105 27.4993 25.2521 28.2534 26.352C30.0556 26.5087 32.1041 26.6745 32.7035 26.6745C33.84 26.6745 34.1005 27.4613 34.1005 27.4613C34.1005 27.4613 37.439 35.3289 38.3387 37.4031ZM25.3973 26.0949C25.3426 26.0449 25.2873 25.9957 25.2313 25.9472C23.8287 24.734 22.0001 24 20 24C19.135 24 18.302 24.1373 17.5217 24.3913C14.3165 25.4345 12 28.4467 12 32C12 36.4183 15.5817 40 20 40C24.4183 40 28 36.4183 28 32C28 29.6617 26.9968 27.5576 25.3973 26.0949Z" fill="black"/>
</svg>

<svg
  xmlns="http://www.w3.org/2000/svg"
  width="24"
  height="24"
  viewBox="0 0 24 24"
  fill="none"
  stroke="currentColor"
  stroke-width="2"
  stroke-linecap="round"
  stroke-linejoin="round"
>
  <path d="M30.5 9.5a3.5 3.5 0 1 1-7 0 3.5 3.5 0 0 1 7 0" />
  <path d="m24.63 32.373 1.364-.098Q26 32.138 26 32a6 6 0 0 0-8.482-5.464c.043 1.15.162 2.076.34 2.57 1.364 3.791 6.772 3.267 6.772 3.267" />
  <path
    fill-rule="evenodd"
    d="M38.339 37.403c.9 2.074-2.202 3.624-3.433 1.764-1.232-1.86-4.286-7.224-4.286-7.224l-.62.045V32c0 5.523-4.477 10-10 10s-10-4.477-10-10c0-4.291 2.703-7.952 6.5-9.37v-5.88l-2.6-1.95 1.2-1.6 3.4 2.55v2.198c.252-.785.557-1.465.92-1.978 2.06-2.909 2.463-3.123 4.736-2.909s6.109 7.796 6.109 7.796 4.83 1.145 6.677 1.788c1.847.644.686 3.171-.498 3.124-1.183-.048-7.671-.692-8.547-1.192-.876-.501-2.344-2.91-2.344-2.91l-.144 1.92a10.1 10.1 0 0 1 2.844 2.765c1.803.157 3.851.322 4.45.322 1.137 0 1.397.787 1.397.787s3.339 7.868 4.239 9.942M25.397 26.095q-.081-.076-.166-.148A7.97 7.97 0 0 0 20 24c-.865 0-1.698.137-2.478.391a8 8 0 1 0 7.876 1.704"
    clip-rule="evenodd"
  />
</svg>
